X: 35430
T: Rover Reformed, The
R: jig
M: 6/8
K: Dminor
|:d2d Adc|d3 e3|fed fed|^c3 A2E|
FBA EGF|DFE _D2=D|FEF GFG|1 A3 A2B/^c/:|2 A3 A2G||
FGA AGF|c3 c2e|dcB AGF|E3 E2c|
dDD cDD|BDD ADD|GBA GFE|F3 F2G|
ABc cBA|BcB G2A|=B=cd d^cB|^c3 A=B^c|
dDD cDD|BDD ADD|GBA GFE|D3 D2A||

